X:1
T:Lord Randal
M:6/8
L:1/8
K:C
 G| D2 E D2 B,| G2 A B3| A2 G B2 G| D3- D z G| D2 E G2 G| G2 A B2 e|\
 e3 d2 B| d3- d z d| e2 ee d2| e d2 d B2| d3 d2 B| A3 G2 E| D2 E D2 B,|\
 D2- E G2 A| B2 B A3| G6|
